X: 4849
T: Brady's Number Nine
R: reel
M: 4/4
K: Adorian
edcA G2EG|AGED EG~G2|Acde g3b|a2eg d2cd|
edcA G2EG|AGED EG~G2|Acde g2ed|cAGE A2cd:|
|:eg~g2 edcd|eg~g2 ageg|a2ba ageg|ageg d2cd|
edcA GE~E2|~G3A cdeg|adeg decA|dcAG A2cd:|

